teeny/outline/robot.svg

<svg width="15" height="15" viewBox="0 0 15 15" fill="none" xmlns="http://www.w3.org/2000/svg">
<path d="M7.5 2.5C10.2614 2.5 12.5 4.73858 12.5 7.5V13.5C12.5 14.0523 12.0523 14.5 11.5 14.5H3.5C2.94772 14.5 2.5 14.0523 2.5 13.5V7.5C2.5 4.73858 4.73858 2.5 7.5 2.5ZM7.5 2.5V0M4 11.5H11M0.5 8V12M14.5 8V12M5.5 9.5C4.94772 9.5 4.5 9.05228 4.5 8.5C4.5 7.94772 4.94772 7.5 5.5 7.5C6.05228 7.5 6.5 7.94772 6.5 8.5C6.5 9.05228 6.05228 9.5 5.5 9.5ZM9.5 9.5C8.94772 9.5 8.5 9.05228 8.5 8.5C8.5 7.94772 8.94772 7.5 9.5 7.5C10.0523 7.5 10.5 7.94772 10.5 8.5C10.5 9.05228 10.0523 9.5 9.5 9.5Z" stroke="black"/>
</svg>

<svg viewBox="0 0 15 15" xmlns="http://www.w3.org/2000/svg"><path fill="none" stroke="#000" d="M7.5 2.5c2.76 0 5 2.23 5 5v6c0 .55-.45 1-1 1h-8c-.56 0-1-.45-1-1v-6c0-2.77 2.23-5 5-5Zm0 0V0M4 11.5h7M.5 8v4m14-4v4m-9-2.5c-.56 0-1-.45-1-1 0-.56.44-1 1-1 .55 0 1 .44 1 1 0 .55-.45 1-1 1Zm4 0c-.56 0-1-.45-1-1 0-.56.44-1 1-1 .55 0 1 .44 1 1 0 .55-.45 1-1 1Z"/></svg>
